azure-patterns/svg-server-blue.svg

<svg xmlns="http://www.w3.org/2000/svg" viewBox="0 0 44 40">
                                
                            
    <g stroke="none" stroke-width="1" fill="none" fill-rule="evenodd">
        <polygon fill="#FFFFFF" points="0.784 38.1956 42.347 38.1956 42.347 1.0006 0.784 1.0006"></polygon>
        <path d="M6.1104,5.7031 C5.3684,5.7031 4.7634,6.3071 4.7634,7.0501 C4.7634,7.7921 5.3684,8.3951 6.1104,8.3951 C6.8524,8.3951 7.4574,7.7921 7.4574,7.0501 C7.4574,6.3071 6.8524,5.7031 6.1104,5.7031 Z M6.1104,9.8951 C4.5414,9.8951 3.2634,8.6191 3.2634,7.0501 C3.2634,5.4801 4.5414,4.2031 6.1104,4.2031 C7.6794,4.2031 8.9574,5.4801 8.9574,7.0501 C8.9574,8.6191 7.6794,9.8951 6.1104,9.8951 Z M1.5004,12.7091 L41.5234,12.7091 L41.5234,1.5001 L1.5004,1.5001 L1.5004,12.7091 Z M41.6984,14.2091 L1.3254,14.2091 C0.5944,14.2091 0.0004,13.6151 0.0004,12.8851 L0.0004,1.3241 C0.0004,0.5941 0.5944,0.0001 1.3254,0.0001 L43.0234,0.0001 L43.0234,12.8851 C43.0234,13.6151 42.4284,14.2091 41.6984,14.2091 Z" fill="#0078D7"></path>
        <path d="M6.0518,18.0625 C5.3098,18.0625 4.7048,18.6665 4.7048,19.4085 C4.7048,20.1505 5.3098,20.7545 6.0518,20.7545 C6.7938,20.7545 7.3988,20.1505 7.3988,19.4085 C7.3988,18.6665 6.7938,18.0625 6.0518,18.0625 Z M6.0518,22.2545 C4.4828,22.2545 3.2048,20.9775 3.2048,19.4085 C3.2048,17.8385 4.4828,16.5625 6.0518,16.5625 C7.6208,16.5625 8.8988,17.8385 8.8988,19.4085 C8.8988,20.9775 7.6208,22.2545 6.0518,22.2545 Z M1.4998,25.0755 L41.5228,25.0755 L41.5228,14.2465 L1.4998,14.2465 L1.4998,25.0755 Z M41.6978,26.5755 L1.3248,26.5755 C0.5948,26.5755 -0.0002,25.9815 -0.0002,25.2505 L-0.0002,14.0705 C-0.0002,13.3395 0.5948,12.7465 1.3248,12.7465 L41.6978,12.7465 C42.4288,12.7465 43.0238,13.3395 43.0238,14.0705 L43.0238,25.2505 C43.0238,25.9815 42.4288,26.5755 41.6978,26.5755 Z" fill="#0078D7"></path>
        <path d="M6.0518,30.3106 C5.3098,30.3106 4.7048,30.9146 4.7048,31.6576 C4.7048,32.3996 5.3098,33.0036 6.0518,33.0036 C6.7938,33.0036 7.3988,32.3996 7.3988,31.6576 C7.3988,30.9146 6.7938,30.3106 6.0518,30.3106 Z M6.0518,34.5036 C4.4828,34.5036 3.2048,33.2266 3.2048,31.6576 C3.2048,30.0876 4.4828,28.8106 6.0518,28.8106 C7.6208,28.8106 8.8988,30.0876 8.8988,31.6576 C8.8988,33.2266 7.6208,34.5036 6.0518,34.5036 Z M1.4998,37.6006 L41.5228,37.6006 L41.5228,26.5496 L1.4998,26.5496 L1.4998,37.6006 Z M41.6978,39.1006 L-0.0002,39.1006 L-0.0002,26.3736 C-0.0002,25.6436 0.5948,25.0496 1.3248,25.0496 L41.6978,25.0496 C42.4288,25.0496 43.0238,25.6436 43.0238,26.3736 L43.0238,37.7756 C43.0238,38.5056 42.4288,39.1006 41.6978,39.1006 Z" fill="#0078D7"></path>
    </g>
</svg>

<svg xmlns="http://www.w3.org/2000/svg" viewBox="0 0 44 40"><g fill="none" fill-rule="evenodd"><path fill="#FFF" d="M.784 38.196h41.563V1H.784z"/><path d="M6.11 5.703c-.742 0-1.347.604-1.347 1.347a1.348 1.348 0 0 0 2.694 0c0-.743-.605-1.347-1.347-1.347zm0 4.192A2.85 2.85 0 0 1 3.263 7.05 2.85 2.85 0 0 1 6.11 4.203 2.85 2.85 0 0 1 8.957 7.05 2.85 2.85 0 0 1 6.11 9.895zM1.5 12.71h40.023V1.5H1.5v11.21zm40.198 1.5H1.325A1.326 1.326 0 0 1 0 12.885V1.325C0 .594.594 0 1.325 0h41.698v12.885c0 .73-.595 1.324-1.325 1.324z" fill="#0078D7"/><path d="M6.052 18.063c-.742 0-1.347.604-1.347 1.346 0 .742.605 1.346 1.347 1.346s1.347-.604 1.347-1.346c0-.742-.605-1.346-1.347-1.346zm0 4.192a2.85 2.85 0 0 1-2.847-2.846 2.85 2.85 0 0 1 2.847-2.846 2.85 2.85 0 0 1 2.847 2.846 2.85 2.85 0 0 1-2.847 2.846zM1.5 25.075h40.023V14.247H1.5v10.83zm40.198 1.5H1.325C.595 26.576 0 25.983 0 25.25V14.07c0-.73.595-1.324 1.325-1.324h40.373c.73 0 1.326.593 1.326 1.324v11.18c0 .732-.595 1.326-1.326 1.326z" fill="#0078D7"/><path d="M6.052 30.31c-.742 0-1.347.605-1.347 1.348 0 .742.605 1.346 1.347 1.346s1.347-.604 1.347-1.346c0-.743-.605-1.347-1.347-1.347zm0 4.194a2.85 2.85 0 0 1-2.847-2.846 2.85 2.85 0 0 1 2.847-2.847 2.85 2.85 0 0 1 2.847 2.847 2.85 2.85 0 0 1-2.847 2.846zM1.5 37.6h40.023V26.55H1.5V37.6zm40.198 1.5H0V26.374c0-.73.595-1.324 1.325-1.324h40.373c.73 0 1.326.594 1.326 1.324v11.402c0 .73-.595 1.325-1.326 1.325z" fill="#0078D7"/></g></svg>
